X: 1029
T: Along The Way
R: waltz
M: 3/4
K: Gmajor
M:6/8
|:GA/B/d g2G|=Fdc EdG|GA/B/d g3|d{/g}a2 gfd|
GA/B/d g2G|=Fdc EdG|GA_B =ffA|{/A}=Bcd dA/B/G|GA_B AdG:|
M:5/8
|:Ga/b/g- g=f|M:6/8
gcd A/B/cd|M:5/8
Ga/b/g- g=f|M:6/8
{/d}egb abc'|
{/c'}d'3/2c'/b agf|{/d}efg GA/_B/G|GA_B B=fA|{/A}=Bcd dA/_B/G|GA_B AdG:|

